X:1
T:Title
%%score 1 ( 2 3 )
L:1/8
Q:1/4=130
M:6/4
K:Bb
V:1 treble nm="Grand Piano, Unnamed-000"
V:2 bass nm="Choir Pad, Unnamed-001"
V:3 bass 
V:1
 [B,D][CE] [DF]4 [DF]2 [DF]2 [CE]2 | [B,D]2 [B,G]4 [EG]2 [DF]4 | [CA][DB] [Ec]4 [Ec]2 [Ec]2 [DB]2 | %3
w: By~Thomas~Hatings,~1842 * * * * *|||
 [CA]2 [DB]4 [Fd]2 [Fc]4 | [Fc]2 [Fd]4 [Fc]2 [DB]4 | [EG]2 [DF]4 [B,D]2 [A,C]4 | %6
w: |||
 [B,D][CE] [DF]4 [DF]2 [DF]2 [CE]2 | [B,D]2 [B,G]4- [B,G]2 [EA]4- | %8
w: ||
 [EA]2 [DB]4- [DB]4- [DB]3/2 z/ |] %9
w: |
V:2
 [B,,F,]2 [B,,B,]4 [B,,B,]2 [B,,B,]4 | [B,,F,]2 E,4 [E,B,]2 [B,,B,]4 | .C6 z2 .A,4 | %3
 [F,C]2 [B,,B,]4 [B,,B,]2 [F,A,]4 | [F,A,]2 [B,,B,]4 [F,A,]2 [G,B,]4 | %5
 [E,B,]2 [B,,B,]4 [D,F,]2 F,4 | [B,,F,]2 [B,,B,]4 [B,,B,]2 [B,,B,]4 | [B,,F,]2 E,4- E,2 [F,C]4- | %8
 [F,C]2 [B,,B,]4- [B,,B,]4- [B,,B,]3/2 z/ |] %9
V:3
 x12 | x12 | F,-[F,B,] [F,A,]4 [F,A,]2 F,2- [F,B,]2 | x12 | x12 | x12 | x12 | x12 | x12 |] %9

